svg/Regular/Printer.svg

<svg xmlns="http://www.w3.org/2000/svg" width="24" height="24" viewBox="0 0 24 24" fill="none"><path d="M6.46154 7.90909V4.5H17.5385V7.90909M6.46154 16.0909H3V9.27273C3 8.51932 3.67154 7.90909 4.49971 7.90909H19.5003C20.3285 7.90909 21 8.51932 21 9.27273V16.0909H17.5385M17.1923 10.6364V11.3182M6.46154 14.0455H17.5385V19.5H6.46154V14.0455Z" stroke="currentColor" stroke-width="1.5" stroke-linecap="round" stroke-linejoin="round"/></svg>

<svg xmlns="http://www.w3.org/2000/svg" width="24" height="24" fill="none" viewBox="0 0 24 24"><path stroke="currentColor" stroke-linecap="round" stroke-linejoin="round" stroke-width="1.5" d="M6.462 7.91V4.5h11.077v3.41M6.461 16.09H3V9.274c0-.754.672-1.364 1.5-1.364h15c.828 0 1.5.61 1.5 1.364v6.818h-3.462m-.346-5.455v.682m-10.73 2.728h11.077V19.5H6.461z"/></svg>
